img/cool-roof.svg

<svg width="90" height="94" viewBox="0 0 90 94" fill="none" xmlns="http://www.w3.org/2000/svg">
<path d="M4.93594 38.512C3.32093 37.9426 2.43938 36.7941 1.65656 35.667C0.810267 34.4524 1.78821 33.7955 2.66036 32.9354C9.79507 25.9007 17.4399 19.4686 25.0283 12.9468C29.2951 9.28177 33.5524 5.53169 37.6357 1.61857C39.7397 -0.397067 41.5334 -0.723161 44.258 1.74853C50.8661 7.74582 58.3887 14.1259 65.6621 20.5958C70.2086 24.6625 74.339 28.8757 79.0571 32.751C80.5992 34.0176 81.6594 35.0715 79.6542 37.0824C78.0133 38.7271 77.1294 39.5163 74.9972 37.5716C64.0824 27.6139 52.6621 17.6066 41.8014 8.21842C40.003 6.66357 39.2484 7.58986 38.2822 8.50907C29.4361 16.919 12.1882 32.2052 12.1882 32.2052C12.1882 32.2052 7.31261 36.7445 4.93359 38.5097L4.93594 38.512Z" fill="#707070"/>
<path d="M22.1792 11.2927L13.2978 18.4336C12.8512 18.7928 12.1882 18.4738 12.1882 17.8972V4.39271C12.1882 4.01463 12.4938 3.70508 12.8723 3.70508H21.7537C22.1298 3.70508 22.4378 4.01227 22.4378 4.39271V10.7586C22.4378 10.9666 22.3437 11.1651 22.1815 11.295L22.1792 11.2927Z" fill="#707070"/>
<path d="M59.0727 66.7074C52.1684 66.6388 47.361 61.7451 47.4244 54.8499C47.4856 48.0279 52.4646 43.2192 59.3948 43.2853C66.2215 43.3515 71.1512 48.3681 71.0783 55.1736C71.0054 61.9908 66.0217 66.7783 59.0751 66.7074H59.0727ZM52.6621 55.1925C52.7349 59.6113 55.4125 62.5485 59.3172 62.5012C63.3489 62.4516 65.8713 59.3655 65.7302 54.6561C65.5962 50.1782 62.9422 47.3946 58.9552 47.5506C55.0857 47.7018 52.5892 50.7335 52.6644 55.1948L52.6621 55.1925Z" fill="#707070"/>
<path d="M44.5446 54.8712C44.5893 61.8136 39.8242 66.6531 32.8869 66.7074C25.9497 66.7618 20.9542 61.9483 20.8907 55.1547C20.8273 48.3516 25.7475 43.3657 32.6001 43.283C39.4927 43.2003 44.5 48.0586 44.5446 54.8712ZM39.3235 54.8499C39.2459 50.4216 36.5848 47.4915 32.6707 47.527C28.6813 47.5624 26.0179 50.7737 26.1754 55.3556C26.3282 59.7744 29.0551 62.6242 32.9974 62.4871C36.8598 62.3524 39.3987 59.2852 39.3211 54.8499H39.3235Z" fill="#707070"/>
<path d="M32.9435 70.6582C39.8502 70.6535 44.7399 75.5094 44.7281 82.3574C44.7164 89.1959 39.8149 94.0164 32.8965 93.9999C26.0345 93.9833 21.0437 89.0541 21.0554 82.3054C21.0648 75.5425 26.0462 70.6653 32.9435 70.6606V70.6582ZM39.4741 82.4283C39.5164 77.9882 36.961 74.94 33.1198 74.8478C29.1775 74.7533 26.5046 77.6196 26.4129 82.0408C26.3142 86.7478 28.839 89.7418 32.9129 89.7465C36.8905 89.7489 39.4341 86.9156 39.4764 82.4283H39.4741Z" fill="#707070"/>
<path d="M71.2076 82.4591C71.1512 89.2929 66.2145 94.0685 59.2843 93.9929C52.4011 93.9173 47.4996 88.9857 47.5631 82.2015C47.6242 75.441 52.655 70.5898 59.5405 70.6559C66.4589 70.7221 71.264 75.5852 71.2076 82.4615V82.4591ZM52.8524 82.2842C52.8195 86.7338 55.3537 89.6757 59.2843 89.7442C63.2524 89.8128 65.8924 86.9819 65.9958 82.5465C66.1016 78.0049 63.3559 74.8125 59.3712 74.8432C55.5159 74.8715 52.8877 77.8725 52.8548 82.2842H52.8524Z" fill="#707070"/>
<path d="M1.56006 70.9678C4.37633 70.9678 7.00219 70.8662 9.61629 70.9938C12.9591 71.1545 16.2315 71.7665 17.4398 75.5095C18.6458 79.2477 17.0449 82.0101 13.8007 84.0257C15.712 87.0763 17.5808 90.0584 19.5955 93.2768C15.8554 94.3756 13.347 93.766 11.6192 90.1246C10.6883 88.161 10.2722 85.0276 6.38863 85.4955V93.5344H1.56006V70.9725V70.9678ZM6.54378 82.6079C8.9228 81.4784 10.834 80.942 12.1716 79.7605C12.757 79.243 12.6418 76.7359 12.0212 76.2963C10.5872 75.2826 8.65011 74.9825 6.54378 74.2665V82.6079Z" fill="#707070"/>
<path d="M16.9861 60.6675C17.7266 61.4473 18.5165 62.2767 19.2993 63.099C14.8704 67.6502 7.63695 67.8959 3.36552 63.8056C-0.974081 59.6514 -1.14569 51.1966 3.0176 46.7424C7.15268 42.3212 14.0547 42.1133 19.0196 46.4163C18.3261 47.326 17.6255 48.2476 16.8098 49.318C13.1355 47.5529 9.47293 46.024 6.55087 50.2183C4.63496 52.9689 4.94527 57.8674 7.05865 60.365C9.30837 63.0258 11.9131 63.1345 16.9861 60.6675Z" fill="#707070"/>
<path d="M75.7001 71.0955H89.812C89.8661 72.1753 89.9225 73.2741 90.0001 74.8054H80.7591V80.7483H88.1806V84.737H80.7496V93.4281H75.6978V71.0978L75.7001 71.0955Z" fill="#707070"/>
<path d="M75.3686 43.7341H80.2888V62.2718H88.6436V66.2653H75.3662V43.7365L75.3686 43.7341Z" fill="#707070"/>
</svg>

<svg width="90" height="94" fill="none" xmlns="http://www.w3.org/2000/svg"><path d="M4.936 38.512c-1.615-.57-2.497-1.718-3.28-2.845-.846-1.215.132-1.872 1.004-2.732 7.135-7.034 14.78-13.466 22.368-19.988 4.267-3.665 8.524-7.415 12.608-11.328 2.104-2.016 3.897-2.342 6.622.13 6.608 5.997 14.13 12.377 21.404 18.847 4.547 4.067 8.677 8.28 13.395 12.155 1.542 1.267 2.602 2.32.597 4.331-1.64 1.645-2.525 2.434-4.657.49-10.915-9.958-22.335-19.965-33.196-29.354-1.798-1.554-2.553-.628-3.519.291-8.846 8.41-26.094 23.696-26.094 23.696s-4.875 4.54-7.254 6.305l.002.002zM22.18 11.293l-8.882 7.14a.683.683 0 01-1.11-.536V4.393c0-.378.306-.688.684-.688h8.882c.376 0 .684.307.684.688v6.366a.688.688 0 01-.256.536l-.003-.002zm36.893 55.414c-6.905-.068-11.712-4.962-11.649-11.857.062-6.822 5.04-11.63 11.97-11.565 6.828.067 11.757 5.083 11.684 11.889-.073 6.817-5.056 11.604-12.003 11.533h-.002zm-6.41-11.514c.072 4.418 2.75 7.355 6.654 7.308 4.032-.05 6.554-3.136 6.413-7.845-.134-4.478-2.788-7.261-6.775-7.105-3.87.15-6.366 3.182-6.29 7.644l-.003-.002zm-8.118-.322c.044 6.943-4.72 11.782-11.658 11.836-6.937.055-11.933-4.759-11.996-11.552-.064-6.803 4.857-11.79 11.71-11.872 6.892-.083 11.899 4.776 11.944 11.588zm-5.221-.021c-.078-4.428-2.74-7.358-6.653-7.323-3.99.035-6.653 3.247-6.496 7.829.153 4.418 2.88 7.268 6.822 7.131 3.863-.135 6.402-3.202 6.324-7.637h.003zm-6.38 15.808c6.906-.005 11.796 4.851 11.784 11.7-.012 6.838-4.913 11.658-11.831 11.642-6.862-.017-11.853-4.946-11.842-11.695.01-6.763 4.991-11.64 11.889-11.644v-.003zm6.53 11.77c.042-4.44-2.513-7.488-6.354-7.58-3.942-.095-6.615 2.772-6.707 7.193-.099 4.707 2.426 7.7 6.5 7.706 3.978.002 6.521-2.831 6.563-7.319h-.002zm31.734.032c-.057 6.833-4.993 11.609-11.924 11.533-6.883-.076-11.784-5.007-11.72-11.791.06-6.761 5.091-11.612 11.977-11.546 6.918.066 11.723 4.93 11.667 11.805v-.002zm-18.356-.176c-.032 4.45 2.502 7.392 6.432 7.46 3.968.069 6.608-2.762 6.712-7.198.106-4.541-2.64-7.734-6.625-7.703-3.855.028-6.483 3.03-6.516 7.441h-.003zM1.56 70.968c2.816 0 5.442-.102 8.056.026 3.343.16 6.616.772 7.824 4.516 1.206 3.738-.395 6.5-3.64 8.516l5.796 9.25c-3.74 1.1-6.249.49-7.977-3.151-.93-1.964-1.347-5.097-5.23-4.63v8.04H1.56V70.967zm4.984 11.64c2.379-1.13 4.29-1.666 5.628-2.848.585-.517.47-3.024-.15-3.464-1.435-1.013-3.372-1.314-5.478-2.03v8.342zm10.442-21.941c.74.78 1.53 1.61 2.313 2.432-4.429 4.551-11.662 4.797-15.933.707-4.34-4.155-4.512-12.61-.348-17.064 4.135-4.42 11.037-4.629 16.002-.326l-2.21 2.902c-3.674-1.765-7.337-3.294-10.26.9-1.915 2.75-1.605 7.65.509 10.147 2.25 2.66 4.854 2.77 9.927.302zM75.7 71.096h14.112l.188 3.71h-9.24v5.942h7.42v3.989h-7.43v8.691h-5.052v-22.33l.002-.002zm-.331-27.362h4.92v18.538h8.355v3.993H75.366V43.736l.003-.002z" fill="#707070"/></svg>
